dist/img/done_arrow.svg

<svg width="41" height="41" viewBox="0 0 41 41" fill="none" xmlns="http://www.w3.org/2000/svg">
<path d="M16.2719 30.6646L35.6188 11.3177L33.7823 9.48126L16.2719 26.9917L7.26042 17.9802L5.42396 19.8167L16.2719 30.6646ZM16.2719 34.8073L1.28125 19.8167L7.26042 13.8802L16.2719 22.8917L33.7823 5.33855L39.7615 11.3177L16.2719 34.8073Z" fill="#00E0FF"/>
</svg>

<svg width="41" height="41" fill="none" xmlns="http://www.w3.org/2000/svg"><path d="m16.272 30.665 19.347-19.347-1.837-1.837-17.51 17.51-9.012-9.01-1.836 1.836 10.848 10.848Zm0 4.142-14.99-14.99L7.26 13.88l9.012 9.012 17.51-17.553 5.98 5.979-23.49 23.49Z" fill="#00E0FF"/></svg>
